X:1
T:Title
%%score { ( 1 3 ) | ( 2 4 ) }
L:1/8
Q:1/4=100
M:4/4
K:G
V:1 treble nm="Grand Piano"
V:3 treble 
V:2 bass 
V:4 bass 
V:1
 D2 EF GFGA | B2 e2 d2 B2 | G4 z4 | [DFA]4 z4 | [DA]2 [A,FA]2 [DGB][CFA][B,G][DFA] | B2 e2 d2 B2 | %6
w: T.~E.~Perkins * * * * * *||||||
 A2 [A,FA][A,FA] [DGB][CFA][B,G][DFA] | B2 e2 d3 B | [Ec]2 [Ec]2 [DB]3 [DG] | [CA]2 [EG]2 E4 | %10
w: ||||
 D2 EF GFGA | B2 e2 d2 B2 | [DG]4 [CA]2 [CA]2 | [B,G]4 z4 |] %14
w: ||||
V:2
 [G,B,]2 [G,C][A,CD] [B,D][A,CD][G,B,D][D,F,D] | [G,D]2 [G,CG]2 [G,B,G]2 [G,DG]2 | E2 z2 z4 | %3
 D,4 z4 | [D,F,]2 D,2 D,D,D,D, | [G,DG]2 [G,CG]2 [G,G]2- [G,DG]2 | [D,F,D]2 D,D, D,D,D,D, | %7
 [G,DG]2 [G,CG]2 [G,B,G]3[K:bass] [G,D] | [C,G,]2 [C,G,]2 [G,,G,]3 [B,,G,] | %9
 [C,E,]2 [C,G,]2 [C,G,C]4 | [G,B,]2 [G,C][A,CD] [B,D][A,CD][G,B,D][D,F,D] | %11
 [G,D]2 [G,CG]2 [G,B,G]2 [G,G]2 | [B,,G,]4 [D,F,]2 [D,F,]2 | [G,,G,]4 z4 |] %14
V:3
 x8 | x8 | z2 D2 [^CGA]2 [CGB]2 | x8 | x8 | x8 | x8 | x8 | x8 | x8 | x8 | x8 | x8 | x8 |] %14
V:4
 x8 | x8 | E,4 E,2 A,,2 | x8 | x8 | z4 B,2 z2 | x8 | x7[K:bass] x | x8 | x8 | x8 | x8 | x8 | x8 |] %14

